X:1
T:Oats, Peas, Beans and Barley Grow
M:6/8
L:1/8
K:F
 A2 A A2 G| F2 F F3| B2 B B2 A| G2 G G2 G| A2 B c2 B| AAB c2 A| G2 B A2 G|\
 F2 F F3|
